X: 1
T: Peace River Breakdown
R: reel
Z: 2020 John Chambers <jc:trillian.mit.edu>
S: handout a Roaring Jelly practice
N: There's another reel in D by this name, but it's not similar.
M: C|
L: 1/8
K: Bm	% and D
|:\
"Bm"b2a2 f3e | dBBA BcdB | "F#m"c2Ac fedc |\
[1,3 "Bm"Bcde "F#m"f3f :|[2,4 "Bm"BdcA B4 :|
K: D
|:\
"D"D2A,D FFEF | AAFA dfed | "G"c2GG GBAG |\
[1,3 "D"FDEF "A"E2DD :[2"A7"FDAD "D"d3D :[4 "A7"FABc "D"d4 |]
